frontend/Idle/src/assets/images/optionArrowLeft.svg

<svg width="16" height="16" viewBox="0 0 16 16" fill="none" xmlns="https://www.w3.org/2000/svg">
<path d="M10.6856 13.0215C10.8631 12.844 10.8792 12.5662 10.734 12.3705L10.6856 12.3144L6.3727 8.0013L10.6856 3.68819C10.8631 3.51068 10.8792 3.2329 10.734 3.03716L10.6856 2.98108C10.5081 2.80357 10.2303 2.78743 10.0346 2.93267L9.97848 2.98108L5.31181 7.64775C5.1343 7.82526 5.11816 8.10304 5.2634 8.29878L5.31181 8.35486L9.97848 13.0215C10.1737 13.2168 10.4903 13.2168 10.6856 13.0215Z" fill="#1A3276"/>
</svg>

<svg width="16" height="16" fill="none" xmlns="https://www.w3.org/2000/svg"><path d="M10.686 13.021a.5.5 0 0 0 .048-.65l-.048-.057-4.313-4.313 4.313-4.313a.5.5 0 0 0 .048-.65l-.048-.057a.5.5 0 0 0-.651-.048l-.057.048-4.666 4.667a.5.5 0 0 0-.049.65l.049.057 4.666 4.666a.5.5 0 0 0 .708 0z" fill="#1A3276"/></svg>
